X: 6562
T: Catherine O'Neill
R: jig
M: 6/8
K: Dmajor
f/g/|agf fed|B2 d A2 d|FAd dcd|fee efg|
agf fed|B2 d A2 d|FAd e2 a|fdd d2:|:
a|gab a2 d'|f3 dcd|e2 a c2 e|dcd f2 a|
gab a2 d'|f3 dcd|e2 a Ace|edd d2:|

